X:1
T:Title
%%score { 1 | 2 }
L:1/8
M:6/8
K:C
V:1 treble nm="Grand Piano"
V:2 bass 
V:1
 z3 z[Q:1/4=100] CE | [EG][EG][EG] [EG][_E^F][=EG] | [FA]2 [EG] [EG]2 [FA] | G2 F F2 G | F2 E ECE | %5
 [EG][EG][EG] [EG][_E^F][=EG] | [FA]2 [EG] [EG]2 [EG] | ^FFF F[DGB][CFA] | %8
[M:5/8] [B,G]-[B,G]- [B,G]3 |[M:1/8] [B,FG] |[M:3/4] [Ec]3 [Ge]2 [Ec] | A3 c2 A | G2 G [Ec]2 [Ec] | %13
 [Gd]4- [Gd][FG] | [Ec]3 [Ge]2 [Ec] |[M:7/8] A3 c3 A |[M:3/4] G2 G [FB]2 [Fd] | %17
[M:5/8] [Ec]-[Ec]- [Ec]3 |] %18
V:2
 z3 z [C,E,][C,G,C] | [C,C][C,C][C,C] [C,C][C,C][C,C] | [C,C]2 [C,C] [C,C]2 [C,C] | %3
 [G,E]2 [G,D] [G,D]2 [G,E] | [C,G,D]2 [C,G,C] [C,G,C][C,E,][C,G,C] | %5
 [C,C][C,C][C,C] [C,C][C,C][C,C] | [C,C]2 [C,C] [C,C]2 [C,C] | [D,A,D][D,A,D][D,A,D] [D,A,D]D,D, | %8
[M:5/8] G,,-G,,- G,,3 |[M:1/8] G, |[M:3/4] [C,C]3 [C,C]2 [C,C] | [F,CF]3 [F,A,F]2 [F,CF] | %12
 [E,C]2 [E,C] [C,C]2 [C,C] | [G,B,]4- [G,B,][G,B,] | [C,C]3 [C,C]2 [C,C] | %15
[M:7/8] [F,CF]3 [F,A,F]3 [F,CF] |[M:3/4] [G,CE]2 [G,CE] [G,,G,]2 [G,,G,] | %17
[M:5/8] [C,G,]-[C,G,]- [C,G,]3 |] %18

